X: 184
T: Liberty Off The Corn Liquor Still
B: canberra pickers and fiddlers
B: old time tunes update
B: tunes
M:C|
L:1/8
R: Reel
Q: 1/4=100
K:G
V:1 
GABc dBdB|dBdB eBdB|[M:2/4]BAGE |[M:C|]C2[CE][CE] [C2E2][CE][CE]|[GA]-[G2c2][Gc] [G2c2][^c2=f2]-|
[df]a[df]a [df]a[fd]a |[fd]a[fd]a fedB|[G2B2][GB][GB][G2B2][GB][GB]|[GA]-[GB][GB][GB] [G2B2][G_B]-[G=B]-||
[GB]ABc dBde|d2[db]a [d2g2][dg][dg]|gabg e[E2c2][Ec]|cdcB AA2[Aa]-|[M:1/4][Aa]g|
[M:C|][Af]a[Af]a [Af]a[Af]a|[Af]a[Af]a fedB|[G2B2][GB][GB][G2B2][GB][GB]|[GA]-[GB][GB][GB]  [G2B2][F_B]-[GB]-||
[GB]ABc dBdB|
% abcbook-tune_id 67a7d9ec8ded2066ff359248
% abcbook-tune_composer_id 
% abcbook-link-0 https://www.youtube.com/watch?v=-5vzghVajs4
% abcbook-link-title-0 Liberty Off The Corn Licker Still
% abcbook-boost 0
% abcbook-difficulty 0
% abcbook-tags old time tunes
% abcbook-tablature 
% abcbook-transpose 
% abcbook-tuning GDAD
% abcbook-lastupdated 1739252042115
% abcbook-src-url 
% abcbook-soundfonts 
% abcbook-repeats 1


